dist/images/svg/hamburger.svg

<svg width="24" height="24" xmlns="http://www.w3.org/2000/svg"><path d="M4 6h16v2H4V6zm0 10h16v2H4v-2zm0-5h16v2H4v-2z" fill="#fff" fill-rule="evenodd"/></svg>

<?xml version="1.0" encoding="UTF-8"?>
<svg width="24px" height="24px" viewBox="0 0 24 24" version="1.1" xmlns="http://www.w3.org/2000/svg" xmlns:xlink="http://www.w3.org/1999/xlink">
    <!-- Generator: Sketch 49.1 (51147) - http://www.bohemiancoding.com/sketch -->
    <title>Elements / Icons / S / Hamburger</title>
    <desc>Created with Sketch.</desc>
    <defs></defs>
    <g id="Symbols" stroke="none" stroke-width="1" fill="none" fill-rule="evenodd">
        <g id="Elements-/-Icons-/-S-/-Hamburger" fill="#fff">
            <path d="M4,6 L20,6 L20,8 L4,8 L4,6 Z M4,16 L20,16 L20,18 L4,18 L4,16 Z M4,11 L20,11 L20,13 L4,13 L4,11 Z" id="Mask"></path>
        </g>
    </g>
</svg>
